images/50952983.svg

<?xml version="1.0" encoding="UTF-8"?>
<svg xmlns="http://www.w3.org/2000/svg" xmlns:xlink="http://www.w3.org/1999/xlink" width="300pt" height="300pt" viewBox="0 0 300 300" version="1.1">
<defs>
<g>
<symbol overflow="visible" id="glyph0-0">
<path style="stroke:none;" d="M 0.453125 1.59375 L 0.453125 -6.34375 L 4.953125 -6.34375 L 4.953125 1.59375 Z M 0.953125 1.09375 L 4.453125 1.09375 L 4.453125 -5.84375 L 0.953125 -5.84375 Z M 0.953125 1.09375 "/>
</symbol>
<symbol overflow="visible" id="glyph0-1">
<path style="stroke:none;" d="M 4.8125 -6.34375 L 4.8125 -5.484375 C 4.476562 -5.640625 4.160156 -5.753906 3.859375 -5.828125 C 3.566406 -5.910156 3.28125 -5.953125 3 -5.953125 C 2.507812 -5.953125 2.132812 -5.859375 1.875 -5.671875 C 1.613281 -5.484375 1.484375 -5.21875 1.484375 -4.875 C 1.484375 -4.582031 1.570312 -4.363281 1.75 -4.21875 C 1.925781 -4.070312 2.253906 -3.953125 2.734375 -3.859375 L 3.28125 -3.75 C 3.9375 -3.625 4.421875 -3.398438 4.734375 -3.078125 C 5.054688 -2.765625 5.21875 -2.34375 5.21875 -1.8125 C 5.21875 -1.175781 5.003906 -0.691406 4.578125 -0.359375 C 4.148438 -0.0351562 3.523438 0.125 2.703125 0.125 C 2.390625 0.125 2.054688 0.0859375 1.703125 0.015625 C 1.359375 -0.046875 1 -0.148438 0.625 -0.296875 L 0.625 -1.203125 C 0.976562 -1.003906 1.328125 -0.851562 1.671875 -0.75 C 2.023438 -0.644531 2.367188 -0.59375 2.703125 -0.59375 C 3.203125 -0.59375 3.585938 -0.691406 3.859375 -0.890625 C 4.140625 -1.085938 4.28125 -1.375 4.28125 -1.75 C 4.28125 -2.070312 4.179688 -2.320312 3.984375 -2.5 C 3.785156 -2.675781 3.460938 -2.8125 3.015625 -2.90625 L 2.46875 -3.015625 C 1.8125 -3.148438 1.332031 -3.359375 1.03125 -3.640625 C 0.738281 -3.921875 0.59375 -4.3125 0.59375 -4.8125 C 0.59375 -5.382812 0.796875 -5.835938 1.203125 -6.171875 C 1.609375 -6.515625 2.171875 -6.6875 2.890625 -6.6875 C 3.203125 -6.6875 3.515625 -6.65625 3.828125 -6.59375 C 4.148438 -6.539062 4.476562 -6.457031 4.8125 -6.34375 Z M 4.8125 -6.34375 "/>
</symbol>
<symbol overflow="visible" id="glyph0-2">
<path style="stroke:none;" d="M 0.890625 -6.5625 L 2.078125 -6.5625 L 4.984375 -1.078125 L 4.984375 -6.5625 L 5.84375 -6.5625 L 5.84375 0 L 4.65625 0 L 1.75 -5.484375 L 1.75 0 L 0.890625 0 Z M 0.890625 -6.5625 "/>
</symbol>
<symbol overflow="visible" id="glyph0-3">
<path style="stroke:none;" d="M 0.890625 -6.5625 L 1.765625 -6.5625 L 1.765625 -3.875 L 5 -3.875 L 5 -6.5625 L 5.890625 -6.5625 L 5.890625 0 L 5 0 L 5 -3.125 L 1.765625 -3.125 L 1.765625 0 L 0.890625 0 Z M 0.890625 -6.5625 "/>
</symbol>
</g>
</defs>
<g id="surface15101">
<rect x="0" y="0" width="300" height="300" style="fill:rgb(100%,100%,100%);fill-opacity:1;stroke:none;"/>
<path style="fill:none;stroke-width:1.2;stroke-linecap:butt;stroke-linejoin:miter;stroke:rgb(80%,80%,0%);stroke-opacity:1;stroke-miterlimit:10;" d="M 134.921875 124.84375 L 123.003906 129.085938 "/>
<path style="fill:none;stroke-width:1.2;stroke-linecap:butt;stroke-linejoin:miter;stroke:rgb(0%,0%,0%);stroke-opacity:1;stroke-miterlimit:10;" d="M 123.003906 129.085938 L 111.089844 133.324219 "/>
<path style="fill:none;stroke-width:1.2;stroke-linecap:butt;stroke-linejoin:miter;stroke:rgb(0%,0%,0%);stroke-opacity:1;stroke-miterlimit:10;" d="M 150.351562 144.890625 L 142.636719 134.867188 "/>
<path style="fill:none;stroke-width:1.2;stroke-linecap:butt;stroke-linejoin:miter;stroke:rgb(80%,80%,0%);stroke-opacity:1;stroke-miterlimit:10;" d="M 142.636719 134.867188 L 134.921875 124.84375 "/>
<path style=" stroke:none;fill-rule:nonzero;fill:rgb(100%,100%,100%);fill-opacity:1;" d="M 131.921875 119.34375 L 137.921875 119.34375 L 137.921875 130.34375 L 131.921875 130.34375 Z M 131.921875 119.34375 "/>
<g style="fill:rgb(80%,80%,0%);fill-opacity:1;">
  <use xlink:href="#glyph0-1" x="131.921875" y="128.006836"/>
</g>
<path style="fill:none;stroke-width:1.2;stroke-linecap:butt;stroke-linejoin:miter;stroke:rgb(0%,0%,0%);stroke-opacity:1;stroke-miterlimit:10;" d="M 111.089844 133.324219 L 111.789062 158.613281 "/>
<path style="fill:none;stroke-width:1.2;stroke-linecap:butt;stroke-linejoin:miter;stroke:rgb(0%,0%,0%);stroke-opacity:1;stroke-miterlimit:10;" d="M 117.109375 135.6875 L 117.667969 155.917969 "/>
<path style="fill:none;stroke-width:1.2;stroke-linecap:butt;stroke-linejoin:miter;stroke:rgb(0%,0%,0%);stroke-opacity:1;stroke-miterlimit:10;" d="M 111.089844 133.324219 L 90.21875 119.027344 "/>
<path style="fill:none;stroke-width:1.2;stroke-linecap:butt;stroke-linejoin:miter;stroke:rgb(0%,0%,0%);stroke-opacity:1;stroke-miterlimit:10;" d="M 111.789062 158.613281 L 123.921875 162.1875 "/>
<path style="fill:none;stroke-width:1.2;stroke-linecap:butt;stroke-linejoin:miter;stroke:rgb(0%,0%,100%);stroke-opacity:1;stroke-miterlimit:10;" d="M 123.921875 162.1875 L 136.054688 165.761719 "/>
<path style="fill:none;stroke-width:1.2;stroke-linecap:butt;stroke-linejoin:miter;stroke:rgb(0%,0%,0%);stroke-opacity:1;stroke-miterlimit:10;" d="M 111.789062 158.613281 L 91.742188 174.042969 "/>
<path style="fill:none;stroke-width:1.2;stroke-linecap:butt;stroke-linejoin:miter;stroke:rgb(0%,0%,100%);stroke-opacity:1;stroke-miterlimit:10;" d="M 136.054688 165.761719 L 143.203125 155.324219 "/>
<path style="fill:none;stroke-width:1.2;stroke-linecap:butt;stroke-linejoin:miter;stroke:rgb(0%,0%,0%);stroke-opacity:1;stroke-miterlimit:10;" d="M 143.203125 155.324219 L 150.351562 144.890625 "/>
<path style="fill:none;stroke-width:1.2;stroke-linecap:butt;stroke-linejoin:miter;stroke:rgb(0%,0%,100%);stroke-opacity:1;stroke-miterlimit:10;" d="M 132.574219 160.308594 L 138.292969 151.960938 "/>
<path style="fill:none;stroke-width:1.2;stroke-linecap:butt;stroke-linejoin:miter;stroke:rgb(0%,0%,0%);stroke-opacity:1;stroke-miterlimit:10;" d="M 138.292969 151.960938 L 144.011719 143.613281 "/>
<path style=" stroke:none;fill-rule:nonzero;fill:rgb(100%,100%,100%);fill-opacity:1;" d="M 133.054688 160.261719 L 140.054688 160.261719 L 140.054688 171.261719 L 133.054688 171.261719 Z M 133.054688 160.261719 "/>
<g style="fill:rgb(0%,0%,100%);fill-opacity:1;">
  <use xlink:href="#glyph0-2" x="133.054688" y="168.924805"/>
</g>
<path style="fill:none;stroke-width:1.2;stroke-linecap:butt;stroke-linejoin:miter;stroke:rgb(0%,0%,0%);stroke-opacity:1;stroke-miterlimit:10;" d="M 150.351562 144.890625 L 162.996094 144.542969 "/>
<path style="fill:none;stroke-width:1.2;stroke-linecap:butt;stroke-linejoin:miter;stroke:rgb(0%,0%,100%);stroke-opacity:1;stroke-miterlimit:10;" d="M 162.996094 144.542969 L 175.636719 144.191406 "/>
<path style="fill:none;stroke-width:1.2;stroke-linecap:butt;stroke-linejoin:miter;stroke:rgb(0%,0%,100%);stroke-opacity:1;stroke-miterlimit:10;" d="M 175.636719 144.191406 L 182.261719 154.964844 "/>
<path style="fill:none;stroke-width:1.2;stroke-linecap:butt;stroke-linejoin:miter;stroke:rgb(0%,0%,0%);stroke-opacity:1;stroke-miterlimit:10;" d="M 182.261719 154.964844 L 188.886719 165.738281 "/>
<path style=" stroke:none;fill-rule:nonzero;fill:rgb(100%,100%,100%);fill-opacity:1;" d="M 168.636719 138.691406 L 182.636719 138.691406 L 182.636719 149.691406 L 168.636719 149.691406 Z M 168.636719 138.691406 "/>
<g style="fill:rgb(0%,0%,100%);fill-opacity:1;">
  <use xlink:href="#glyph0-2" x="168.636719" y="147.354492"/>
  <use xlink:href="#glyph0-3" x="175.614258" y="147.354492"/>
</g>
<path style="fill:none;stroke-width:1.2;stroke-linecap:butt;stroke-linejoin:miter;stroke:rgb(0%,0%,0%);stroke-opacity:1;stroke-miterlimit:10;" d="M 188.886719 165.738281 L 214.175781 165.039062 "/>
<path style="fill:none;stroke-width:1.2;stroke-linecap:butt;stroke-linejoin:miter;stroke:rgb(0%,0%,0%);stroke-opacity:1;stroke-miterlimit:10;" d="M 214.175781 165.039062 L 227.425781 186.589844 "/>
<path style="fill:none;stroke-width:1.2;stroke-linecap:butt;stroke-linejoin:miter;stroke:rgb(0%,0%,0%);stroke-opacity:1;stroke-miterlimit:10;" d="M 220.570312 164.078125 L 231.171875 181.316406 "/>
<path style="fill:none;stroke-width:1.2;stroke-linecap:butt;stroke-linejoin:miter;stroke:rgb(0%,0%,0%);stroke-opacity:1;stroke-miterlimit:10;" d="M 226.210938 142.789062 L 214.175781 165.039062 "/>
<path style="fill:none;stroke-width:1.2;stroke-linecap:butt;stroke-linejoin:miter;stroke:rgb(0%,0%,0%);stroke-opacity:1;stroke-miterlimit:10;" d="M 227.425781 186.589844 L 252.710938 185.890625 "/>
<path style="fill:none;stroke-width:1.2;stroke-linecap:butt;stroke-linejoin:miter;stroke:rgb(0%,0%,0%);stroke-opacity:1;stroke-miterlimit:10;" d="M 252.710938 185.890625 L 264.75 163.640625 "/>
<path style="fill:none;stroke-width:1.2;stroke-linecap:butt;stroke-linejoin:miter;stroke:rgb(0%,0%,0%);stroke-opacity:1;stroke-miterlimit:10;" d="M 248.679688 180.832031 L 258.3125 163.03125 "/>
<path style="fill:none;stroke-width:1.2;stroke-linecap:butt;stroke-linejoin:miter;stroke:rgb(0%,0%,0%);stroke-opacity:1;stroke-miterlimit:10;" d="M 264.75 163.640625 L 251.5 142.089844 "/>
<path style="fill:none;stroke-width:1.2;stroke-linecap:butt;stroke-linejoin:miter;stroke:rgb(0%,0%,0%);stroke-opacity:1;stroke-miterlimit:10;" d="M 251.5 142.089844 L 226.210938 142.789062 "/>
<path style="fill:none;stroke-width:1.2;stroke-linecap:butt;stroke-linejoin:miter;stroke:rgb(0%,0%,0%);stroke-opacity:1;stroke-miterlimit:10;" d="M 249.136719 148.109375 L 228.90625 148.671875 "/>
<path style="fill:none;stroke-width:1.2;stroke-linecap:butt;stroke-linejoin:miter;stroke:rgb(0%,0%,0%);stroke-opacity:1;stroke-miterlimit:10;" d="M 91.742188 174.042969 L 68.355469 164.398438 "/>
<path style="fill:none;stroke-width:1.2;stroke-linecap:butt;stroke-linejoin:miter;stroke:rgb(0%,0%,0%);stroke-opacity:1;stroke-miterlimit:10;" d="M 91.742188 174.042969 L 95.082031 199.117188 "/>
<path style="fill:none;stroke-width:1.2;stroke-linecap:butt;stroke-linejoin:miter;stroke:rgb(0%,0%,0%);stroke-opacity:1;stroke-miterlimit:10;" d="M 86.175781 177.335938 L 88.847656 197.394531 "/>
<path style="fill:none;stroke-width:1.2;stroke-linecap:butt;stroke-linejoin:miter;stroke:rgb(0%,0%,0%);stroke-opacity:1;stroke-miterlimit:10;" d="M 68.355469 164.398438 L 48.308594 179.828125 "/>
<path style="fill:none;stroke-width:1.2;stroke-linecap:butt;stroke-linejoin:miter;stroke:rgb(0%,0%,0%);stroke-opacity:1;stroke-miterlimit:10;" d="M 69.980469 170.65625 L 53.945312 183 "/>
<path style="fill:none;stroke-width:1.2;stroke-linecap:butt;stroke-linejoin:miter;stroke:rgb(0%,0%,0%);stroke-opacity:1;stroke-miterlimit:10;" d="M 48.308594 179.828125 L 51.648438 204.902344 "/>
<path style="fill:none;stroke-width:1.2;stroke-linecap:butt;stroke-linejoin:miter;stroke:rgb(0%,0%,0%);stroke-opacity:1;stroke-miterlimit:10;" d="M 51.648438 204.902344 L 63.34375 209.726562 "/>
<path style="fill:none;stroke-width:1.2;stroke-linecap:butt;stroke-linejoin:miter;stroke:rgb(0%,0%,100%);stroke-opacity:1;stroke-miterlimit:10;" d="M 63.34375 209.726562 L 75.035156 214.546875 "/>
<path style="fill:none;stroke-width:1.2;stroke-linecap:butt;stroke-linejoin:miter;stroke:rgb(0%,0%,100%);stroke-opacity:1;stroke-miterlimit:10;" d="M 35.25 224.164062 L 43.449219 214.53125 "/>
<path style="fill:none;stroke-width:1.2;stroke-linecap:butt;stroke-linejoin:miter;stroke:rgb(0%,0%,0%);stroke-opacity:1;stroke-miterlimit:10;" d="M 43.449219 214.53125 L 51.648438 204.902344 "/>
<path style="fill:none;stroke-width:1.2;stroke-linecap:butt;stroke-linejoin:miter;stroke:rgb(0%,0%,100%);stroke-opacity:1;stroke-miterlimit:10;" d="M 41.421875 226.097656 L 47.980469 218.390625 "/>
<path style="fill:none;stroke-width:1.2;stroke-linecap:butt;stroke-linejoin:miter;stroke:rgb(0%,0%,0%);stroke-opacity:1;stroke-miterlimit:10;" d="M 47.980469 218.390625 L 54.542969 210.6875 "/>
<path style="fill:none;stroke-width:1.2;stroke-linecap:butt;stroke-linejoin:miter;stroke:rgb(0%,0%,100%);stroke-opacity:1;stroke-miterlimit:10;" d="M 75.035156 214.546875 L 73.089844 239.769531 "/>
<path style="fill:none;stroke-width:1.2;stroke-linecap:butt;stroke-linejoin:miter;stroke:rgb(0%,0%,100%);stroke-opacity:1;stroke-miterlimit:10;" d="M 75.035156 214.546875 L 85.058594 206.832031 "/>
<path style="fill:none;stroke-width:1.2;stroke-linecap:butt;stroke-linejoin:miter;stroke:rgb(0%,0%,0%);stroke-opacity:1;stroke-miterlimit:10;" d="M 85.058594 206.832031 L 95.082031 199.117188 "/>
<path style=" stroke:none;fill-rule:nonzero;fill:rgb(100%,100%,100%);fill-opacity:1;" d="M 72.035156 209.046875 L 79.035156 209.046875 L 79.035156 220.046875 L 72.035156 220.046875 Z M 72.035156 209.046875 "/>
<g style="fill:rgb(0%,0%,100%);fill-opacity:1;">
  <use xlink:href="#glyph0-2" x="72.035156" y="217.709961"/>
</g>
<path style="fill:none;stroke-width:1.2;stroke-linecap:butt;stroke-linejoin:miter;stroke:rgb(0%,0%,100%);stroke-opacity:1;stroke-miterlimit:10;" d="M 73.089844 239.769531 L 60.792969 242.742188 "/>
<path style="fill:none;stroke-width:1.2;stroke-linecap:butt;stroke-linejoin:miter;stroke:rgb(0%,0%,0%);stroke-opacity:1;stroke-miterlimit:10;" d="M 60.792969 242.742188 L 48.5 245.710938 "/>
<path style="fill:none;stroke-width:1.2;stroke-linecap:butt;stroke-linejoin:miter;stroke:rgb(0%,0%,100%);stroke-opacity:1;stroke-miterlimit:10;" d="M 69.230469 234.578125 L 59.394531 236.957031 "/>
<path style="fill:none;stroke-width:1.2;stroke-linecap:butt;stroke-linejoin:miter;stroke:rgb(0%,0%,0%);stroke-opacity:1;stroke-miterlimit:10;" d="M 59.394531 236.957031 L 49.5625 239.332031 "/>
<path style=" stroke:none;fill-rule:nonzero;fill:rgb(100%,100%,100%);fill-opacity:1;" d="M 70.089844 234.269531 L 77.089844 234.269531 L 77.089844 245.269531 L 70.089844 245.269531 Z M 70.089844 234.269531 "/>
<g style="fill:rgb(0%,0%,100%);fill-opacity:1;">
  <use xlink:href="#glyph0-2" x="70.089844" y="242.932617"/>
</g>
<path style="fill:none;stroke-width:1.2;stroke-linecap:butt;stroke-linejoin:miter;stroke:rgb(0%,0%,0%);stroke-opacity:1;stroke-miterlimit:10;" d="M 48.5 245.710938 L 41.875 234.9375 "/>
<path style="fill:none;stroke-width:1.2;stroke-linecap:butt;stroke-linejoin:miter;stroke:rgb(0%,0%,100%);stroke-opacity:1;stroke-miterlimit:10;" d="M 41.875 234.9375 L 35.25 224.164062 "/>
<path style=" stroke:none;fill-rule:nonzero;fill:rgb(100%,100%,100%);fill-opacity:1;" d="M 32.25 218.664062 L 39.25 218.664062 L 39.25 229.664062 L 32.25 229.664062 Z M 32.25 218.664062 "/>
<g style="fill:rgb(0%,0%,100%);fill-opacity:1;">
  <use xlink:href="#glyph0-2" x="32.25" y="227.327148"/>
</g>
<path style="fill:none;stroke-width:1.2;stroke-linecap:butt;stroke-linejoin:miter;stroke:rgb(0%,0%,0%);stroke-opacity:1;stroke-miterlimit:10;" d="M 90.21875 119.027344 L 91.191406 106.417969 "/>
<path style="fill:none;stroke-width:1.2;stroke-linecap:butt;stroke-linejoin:miter;stroke:rgb(0%,0%,100%);stroke-opacity:1;stroke-miterlimit:10;" d="M 91.191406 106.417969 L 92.164062 93.804688 "/>
<path style="fill:none;stroke-width:1.2;stroke-linecap:butt;stroke-linejoin:miter;stroke:rgb(0%,0%,0%);stroke-opacity:1;stroke-miterlimit:10;" d="M 84.480469 116.046875 L 85.257812 105.960938 "/>
<path style="fill:none;stroke-width:1.2;stroke-linecap:butt;stroke-linejoin:miter;stroke:rgb(0%,0%,100%);stroke-opacity:1;stroke-miterlimit:10;" d="M 85.257812 105.960938 L 86.035156 95.871094 "/>
<path style="fill:none;stroke-width:1.2;stroke-linecap:butt;stroke-linejoin:miter;stroke:rgb(0%,0%,0%);stroke-opacity:1;stroke-miterlimit:10;" d="M 67.402344 129.953125 L 90.21875 119.027344 "/>
<path style="fill:none;stroke-width:1.2;stroke-linecap:butt;stroke-linejoin:miter;stroke:rgb(0%,0%,100%);stroke-opacity:1;stroke-miterlimit:10;" d="M 92.164062 93.804688 L 81.730469 86.65625 "/>
<path style="fill:none;stroke-width:1.2;stroke-linecap:butt;stroke-linejoin:miter;stroke:rgb(0%,0%,0%);stroke-opacity:1;stroke-miterlimit:10;" d="M 81.730469 86.65625 L 71.296875 79.507812 "/>
<path style=" stroke:none;fill-rule:nonzero;fill:rgb(100%,100%,100%);fill-opacity:1;" d="M 89.164062 88.304688 L 96.164062 88.304688 L 96.164062 99.304688 L 89.164062 99.304688 Z M 89.164062 88.304688 "/>
<g style="fill:rgb(0%,0%,100%);fill-opacity:1;">
  <use xlink:href="#glyph0-2" x="89.164062" y="96.967773"/>
</g>
<path style="fill:none;stroke-width:1.2;stroke-linecap:butt;stroke-linejoin:miter;stroke:rgb(0%,0%,0%);stroke-opacity:1;stroke-miterlimit:10;" d="M 71.296875 79.507812 L 48.480469 90.433594 "/>
<path style="fill:none;stroke-width:1.2;stroke-linecap:butt;stroke-linejoin:miter;stroke:rgb(0%,0%,0%);stroke-opacity:1;stroke-miterlimit:10;" d="M 71.585938 85.96875 L 53.332031 94.710938 "/>
<path style="fill:none;stroke-width:1.2;stroke-linecap:butt;stroke-linejoin:miter;stroke:rgb(0%,0%,0%);stroke-opacity:1;stroke-miterlimit:10;" d="M 71.296875 79.507812 L 73.242188 54.289062 "/>
<path style="fill:none;stroke-width:1.2;stroke-linecap:butt;stroke-linejoin:miter;stroke:rgb(0%,0%,0%);stroke-opacity:1;stroke-miterlimit:10;" d="M 48.480469 90.433594 L 46.53125 115.65625 "/>
<path style="fill:none;stroke-width:1.2;stroke-linecap:butt;stroke-linejoin:miter;stroke:rgb(0%,0%,0%);stroke-opacity:1;stroke-miterlimit:10;" d="M 46.53125 115.65625 L 67.402344 129.953125 "/>
<path style="fill:none;stroke-width:1.2;stroke-linecap:butt;stroke-linejoin:miter;stroke:rgb(0%,0%,0%);stroke-opacity:1;stroke-miterlimit:10;" d="M 51.984375 112.175781 L 68.679688 123.613281 "/>
</g>
</svg>

<svg xmlns="http://www.w3.org/2000/svg" xmlns:xlink="http://www.w3.org/1999/xlink" width="300pt" height="300pt" viewBox="0 0 300 300"><defs><symbol overflow="visible"><path d="M.453 1.594v-7.938h4.5v7.938zm.5-.5h3.5v-6.938h-3.5zm0 0"/></symbol><symbol overflow="visible" id="a"><path d="M4.813-6.344v.86c-.336-.157-.653-.27-.954-.344-.294-.082-.58-.125-.86-.125-.492 0-.867.094-1.125.28-.262.19-.39.454-.39.798 0 .293.085.512.265.656.176.15.504.267.984.36l.547.11c.658.125 1.142.352 1.454.672.32.312.485.734.485 1.265 0 .637-.216 1.122-.642 1.454-.43.325-1.055.485-1.875.485-.312 0-.648-.04-1-.11C1.36-.046 1-.147.625-.296v-.906c.352.2.703.35 1.047.453.35.105.695.156 1.03.156.5 0 .884-.097 1.157-.297.28-.196.42-.485.42-.86 0-.32-.1-.57-.296-.75-.2-.176-.523-.313-.968-.406l-.547-.11C1.81-3.148 1.33-3.36 1.03-3.64.74-3.923.595-4.313.595-4.813c0-.57.203-1.024.61-1.36.405-.344.968-.516 1.687-.516.313 0 .626.032.938.094.32.055.65.137.985.25zm0 0"/></symbol><symbol overflow="visible" id="b"><path d="M.89-6.563H2.08l2.906 5.485v-5.484h.86V0H4.656L1.75-5.484V0H.89zm0 0"/></symbol><symbol overflow="visible" id="c"><path d="M.89-6.563h.876v2.688H5v-2.688h.89V0H5v-3.125H1.766V0H.89zm0 0"/></symbol></defs><g><path fill="#fff" d="M0 0h300v300H0z"/><path d="M134.922 124.844l-11.918 4.242" stroke-width="1.2" stroke="#cc0" stroke-miterlimit="10" fill="none"/><path d="M123.004 129.086l-11.914 4.238M150.352 144.89l-7.715-10.023" stroke-width="1.2" stroke="#000" stroke-miterlimit="10" fill="none"/><path d="M142.637 134.867l-7.715-10.023" stroke-width="1.2" stroke="#cc0" stroke-miterlimit="10" fill="none"/><path d="M131.922 119.344h6v11h-6zm0 0" fill="#fff"/><use xlink:href="#a" x="131.922" y="128.007" fill="#cc0"/><path d="M111.09 133.324l.7 25.29M117.11 135.688l.558 20.23M111.09 133.324l-20.87-14.297M111.79 158.613l12.132 3.575" stroke-width="1.2" stroke="#000" stroke-miterlimit="10" fill="none"/><path d="M123.922 162.188l12.133 3.574" stroke-width="1.2" stroke="#00f" stroke-miterlimit="10" fill="none"/><path d="M111.79 158.613l-20.048 15.43" stroke-width="1.2" stroke="#000" stroke-miterlimit="10" fill="none"/><path d="M136.055 165.762l7.148-10.438" stroke-width="1.2" stroke="#00f" stroke-miterlimit="10" fill="none"/><path d="M143.203 155.324l7.15-10.433" stroke-width="1.2" stroke="#000" stroke-miterlimit="10" fill="none"/><path d="M132.574 160.31l5.72-8.35" stroke-width="1.2" stroke="#00f" stroke-miterlimit="10" fill="none"/><path d="M138.293 151.96l5.72-8.347" stroke-width="1.2" stroke="#000" stroke-miterlimit="10" fill="none"/><path d="M133.055 160.262h7v11h-7zm0 0" fill="#fff"/><use xlink:href="#b" x="133.055" y="168.925" fill="#00f"/><path d="M150.352 144.89l12.644-.347" stroke-width="1.2" stroke="#000" stroke-miterlimit="10" fill="none"/><path d="M162.996 144.543l12.64-.352M175.637 144.19l6.625 10.775" stroke-width="1.2" stroke="#00f" stroke-miterlimit="10" fill="none"/><path d="M182.262 154.965l6.625 10.773" stroke-width="1.2" stroke="#000" stroke-miterlimit="10" fill="none"/><path d="M168.637 138.69h14v11h-14zm0 0" fill="#fff"/><g fill="#00f"><use xlink:href="#b" x="168.637" y="147.354"/><use xlink:href="#c" x="175.614" y="147.354"/></g><path d="M188.887 165.738l25.29-.7M214.176 165.04l13.25 21.55M220.57 164.078l10.602 17.238M226.21 142.79l-12.034 22.25M227.426 186.59l25.285-.7M252.71 185.89l12.04-22.25M248.68 180.832l9.632-17.8M264.75 163.64l-13.25-21.55M251.5 142.09l-25.29.7M249.137 148.11l-20.23.562M91.742 174.043l-23.387-9.645M91.742 174.043l3.34 25.074M86.176 177.336l2.672 20.06M68.355 164.398l-20.046 15.43M69.98 170.656L53.945 183M48.31 179.828l3.338 25.074M51.648 204.902l11.696 4.825" stroke-width="1.2" stroke="#000" stroke-miterlimit="10" fill="none"/><path d="M63.344 209.727l11.69 4.82M35.25 224.164l8.2-9.633" stroke-width="1.2" stroke="#00f" stroke-miterlimit="10" fill="none"/><path d="M43.45 214.53l8.198-9.628" stroke-width="1.2" stroke="#000" stroke-miterlimit="10" fill="none"/><path d="M41.422 226.098l6.558-7.707" stroke-width="1.2" stroke="#00f" stroke-miterlimit="10" fill="none"/><path d="M47.98 218.39l6.563-7.702" stroke-width="1.2" stroke="#000" stroke-miterlimit="10" fill="none"/><path d="M75.035 214.547L73.09 239.77M75.035 214.547l10.024-7.715" stroke-width="1.2" stroke="#00f" stroke-miterlimit="10" fill="none"/><path d="M85.06 206.832l10.022-7.715" stroke-width="1.2" stroke="#000" stroke-miterlimit="10" fill="none"/><path d="M72.035 209.047h7v11h-7zm0 0" fill="#fff"/><use xlink:href="#b" x="72.035" y="217.71" fill="#00f"/><path d="M73.09 239.77l-12.297 2.972" stroke-width="1.2" stroke="#00f" stroke-miterlimit="10" fill="none"/><path d="M60.793 242.742l-12.293 2.97" stroke-width="1.2" stroke="#000" stroke-miterlimit="10" fill="none"/><path d="M69.23 234.578l-9.835 2.38" stroke-width="1.2" stroke="#00f" stroke-miterlimit="10" fill="none"/><path d="M59.395 236.957l-9.833 2.375" stroke-width="1.2" stroke="#000" stroke-miterlimit="10" fill="none"/><path d="M70.09 234.27h7v11h-7zm0 0" fill="#fff"/><use xlink:href="#b" x="70.09" y="242.933" fill="#00f"/><path d="M48.5 245.71l-6.625-10.773" stroke-width="1.2" stroke="#000" stroke-miterlimit="10" fill="none"/><path d="M41.875 234.938l-6.625-10.774" stroke-width="1.2" stroke="#00f" stroke-miterlimit="10" fill="none"/><path d="M32.25 218.664h7v11h-7zm0 0" fill="#fff"/><use xlink:href="#b" x="32.25" y="227.327" fill="#00f"/><path d="M90.22 119.027l.97-12.61" stroke-width="1.2" stroke="#000" stroke-miterlimit="10" fill="none"/><path d="M91.19 106.418l.974-12.613" stroke-width="1.2" stroke="#00f" stroke-miterlimit="10" fill="none"/><path d="M84.48 116.047l.778-10.086" stroke-width="1.2" stroke="#000" stroke-miterlimit="10" fill="none"/><path d="M85.258 105.96l.777-10.09" stroke-width="1.2" stroke="#00f" stroke-miterlimit="10" fill="none"/><path d="M67.402 129.953l22.817-10.926" stroke-width="1.2" stroke="#000" stroke-miterlimit="10" fill="none"/><path d="M92.164 93.805l-10.434-7.15" stroke-width="1.2" stroke="#00f" stroke-miterlimit="10" fill="none"/><path d="M81.73 86.656l-10.433-7.148" stroke-width="1.2" stroke="#000" stroke-miterlimit="10" fill="none"/><path d="M89.164 88.305h7v11h-7zm0 0" fill="#fff"/><use xlink:href="#b" x="89.164" y="96.968" fill="#00f"/><path d="M71.297 79.508L48.48 90.434M71.586 85.97l-18.254 8.74M71.297 79.508l1.945-25.22M48.48 90.434l-1.95 25.222M46.53 115.656l20.872 14.297M51.984 112.176l16.696 11.437" stroke-width="1.2" stroke="#000" stroke-miterlimit="10" fill="none"/></g></svg>
